svgs/sharp-light/diploma.svg

<svg xmlns="http://www.w3.org/2000/svg" viewBox="0 0 640 512"><!--! Font Awesome Pro 6.6.0 by @fontawesome - https://fontawesome.com License - https://fontawesome.com/license (Commercial License) Copyright 2024 Fonticons, Inc. --><path d="M253.2 80.8C245 70.2 232.4 64 219 64c-23.8 0-43 19.3-43 43l0 37 64 0 32 0 29.8 0L253.2 80.8zM144 144l0-37c0-41.4 33.6-75 75-75c23.3 0 45.3 10.8 59.5 29.3L320 115.2l41.5-53.9C375.7 42.8 397.7 32 421 32c41.4 0 75 33.6 75 75l0 37 112 0 32 0 0 32 0 112L576 416 400 383l0 62.5 0 34.5-32-12.8L320 448l-48 19.2L240 480l0-34.5 0-62.5L64 416 0 288 0 176l0-32 32 0 112 0zm96 206.4L240 176l-64 0-32 0L32 176l0 104.4 49.8 99.7L240 350.4zm160 0l158.2 29.7L608 280.4 608 176l-112 0-32 0-64 0 0 174.4zM400 144l64 0 0-37c0-23.8-19.3-43-43-43c-13.4 0-26 6.2-34.1 16.8L338.2 144l29.8 0 32 0zm-64 32l-32 0-32 0 0 256.7 36.1-14.4 11.9-4.8 11.9 4.8L368 432.7 368 176l-32 0z"/></svg>

<svg xmlns="http://www.w3.org/2000/svg" viewBox="0 0 640 512"><!--! Font Awesome Pro 6.5.2 by @fontawesome - https://fontawesome.com License - https://fontawesome.com/license (Commercial License) Copyright 2024 Fonticons, Inc. --><path d="M253.2 80.8C245 70.2 232.4 64 219 64c-23.8 0-43 19.3-43 43v37h64 32 29.8L253.2 80.8zM144 144V107c0-41.4 33.6-75 75-75c23.3 0 45.3 10.8 59.5 29.3L320 115.2l41.5-53.9C375.7 42.8 397.7 32 421 32c41.4 0 75 33.6 75 75v37H608h32v32V288L576 416 400 383v62.5V480l-32-12.8L320 448l-48 19.2L240 480V445.5 383L64 416 0 288V176 144H32 144zm96 206.4V176H176 144 32V280.4l49.8 99.7L240 350.4zm160 0l158.2 29.7L608 280.4V176H496 464 400V350.4zM400 144h64V107c0-23.8-19.3-43-43-43c-13.4 0-26 6.2-34.1 16.8L338.2 144H368h32zm-64 32H304 272V432.7l36.1-14.4 11.9-4.8 11.9 4.8L368 432.7V176H336z"/></svg>
